tools/download-figma-icons/icons/outlined-medium/street-light.svg

<svg width="24" height="24" viewBox="0 0 24 24" fill="none" xmlns="http://www.w3.org/2000/svg">
<path fill-rule="evenodd" clip-rule="evenodd" d="M6.97877 16.5H5.00234L4.55332 22.5H7.42704L6.97877 16.5ZM16.4673 3C17.7702 3 18.8771 2.37 19.2812 1.5H13.6542C14.0583 2.37 15.1652 3 16.4673 3ZM8.93127 22.5H9.73202C10.1436 22.5 10.4804 22.8375 10.4804 23.25C10.4804 23.6625 10.1436 24 9.73202 24H8.23529H3.7451H2.24837C1.83751 24 1.5 23.6625 1.5 23.25C1.5 22.8375 1.83751 22.5 2.24837 22.5H3.04987L3.55801 15.69C3.58794 15.3 3.91797 15 4.30637 15H5.24183V5.25C5.24183 2.355 7.5917 0 10.4804 0H20.2091C20.6207 0 20.9575 0.3375 20.9575 0.75C20.9575 2.82 18.9444 4.5 16.4673 4.5C14.2971 4.5 12.486 3.21 12.0669 1.5H10.4804C8.42238 1.5 6.73856 3.1875 6.73856 5.25V15H7.67402C8.06317 15 8.39245 15.3 8.42238 15.69L8.93127 22.5ZM15.7192 6.75C15.7192 6.33525 16.0537 6 16.4675 6C16.8814 6 17.2159 6.33525 17.2159 6.75V9C17.2159 9.41475 16.8814 9.75 16.4675 9.75C16.0537 9.75 15.7192 9.41475 15.7192 9V6.75ZM22.2805 6.64012L20.5511 4.90688C20.2592 4.61438 19.7855 4.61438 19.4929 4.90688C19.201 5.20012 19.201 5.67487 19.4929 5.96812L21.2224 7.70062C21.3683 7.84687 21.5599 7.92037 21.7514 7.92037C21.943 7.92037 22.1346 7.84687 22.2805 7.70062C22.5732 7.40737 22.5732 6.93337 22.2805 6.64012ZM10.5124 6.6405L12.2419 4.90725C12.5345 4.614 13.0075 4.614 13.3001 4.90725C13.5927 5.2005 13.5927 5.6745 13.3001 5.96775L11.5713 7.701C11.4247 7.84725 11.2331 7.92075 11.0415 7.92075C10.8507 7.92075 10.6591 7.84725 10.5124 7.701C10.2205 7.40775 10.2205 6.933 10.5124 6.6405Z" fill="black"/>
</svg>

<svg xmlns="http://www.w3.org/2000/svg" width="24" height="24" fill="none" viewBox="0 0 24 24"><path fill="currentColor" fill-rule="evenodd" d="M6.979 16.5H5.002l-.449 6h2.874zM16.467 3c1.303 0 2.41-.63 2.814-1.5h-5.627c.404.87 1.511 1.5 2.813 1.5M8.931 22.5h.801a.75.75 0 0 1 0 1.5H2.248a.75.75 0 0 1-.748-.75c0-.413.338-.75.748-.75h.802l.508-6.81c.03-.39.36-.69.748-.69h.936V5.25C5.242 2.355 7.592 0 10.48 0h9.73c.41 0 .747.338.747.75 0 2.07-2.013 3.75-4.49 3.75-2.17 0-3.981-1.29-4.4-3H10.48c-2.058 0-3.74 1.688-3.74 3.75V15h.935c.39 0 .718.3.748.69zM15.72 6.75a.748.748 0 1 1 1.497 0V9a.748.748 0 1 1-1.497 0zm6.562-.11-1.73-1.733a.75.75 0 0 0-1.058 0 .753.753 0 0 0 0 1.061l1.73 1.733a.745.745 0 0 0 1.058 0 .75.75 0 0 0 0-1.06m-11.769 0 1.73-1.733a.746.746 0 0 1 1.058 0 .75.75 0 0 1 0 1.06l-1.729 1.734a.748.748 0 1 1-1.059-1.06" clip-rule="evenodd"/></svg>
